src/components/00-materials/images-raw/Mindset.svg

<svg width="96" height="96" viewBox="0 0 96 96" fill="none" xmlns="http://www.w3.org/2000/svg">
<path d="M19.5267 59.365C18.3503 59.365 17.2218 58.8983 16.389 58.0674C15.5561 57.2365 15.0869 56.1091 15.0842 54.9327C15.0789 54.3574 15.1909 53.787 15.4132 53.2564L21.0796 39.0443L21.1927 38.6946C21.2955 38.4204 21.3984 38.1222 21.5012 37.8C21.8406 36.8333 22.1491 35.8975 22.437 35.0336L22.5913 34.5812C23.1158 32.9769 23.4654 31.784 23.6197 31.095C26.3963 19.4332 39.035 9.90018 51.9822 9.90018C55.8513 9.89477 59.6836 10.6515 63.2603 12.1272C66.837 13.6028 70.088 15.7685 72.8277 18.5006C75.5674 21.2326 77.7422 24.4776 79.2278 28.0501C80.7134 31.6227 81.4809 35.4528 81.4863 39.322C81.4863 47.7649 76.5398 57.9047 69.7628 63.8178L73.2696 83.3569C73.3301 83.6798 73.3186 84.0121 73.2359 84.3301C73.1532 84.648 73.0013 84.9438 72.7911 85.1963C72.5809 85.4487 72.3175 85.6516 72.0198 85.7906C71.7221 85.9295 71.3974 86.0009 71.0688 85.9999H41.9659C41.5325 86.0027 41.1076 85.8799 40.7425 85.6463C40.3775 85.4127 40.088 85.0783 39.9091 84.6835L36.7623 77.6803H33.9445C32.2402 77.683 30.5521 77.35 28.9765 76.7003C27.4009 76.0506 25.9687 75.0969 24.7616 73.8937C23.5546 72.6904 22.5964 71.2613 21.9417 69.6877C21.287 68.1142 20.9486 66.4271 20.9459 64.7228V59.365H19.5267Z" stroke="#00008F" stroke-width="1.88188" stroke-linecap="round" stroke-linejoin="round"/>
<path d="M63.0315 33.5047C65.1386 33.5047 66.8467 31.7966 66.8467 29.6895C66.8467 27.5824 65.1386 25.8743 63.0315 25.8743C60.9244 25.8743 59.2163 27.5824 59.2163 29.6895C59.2163 31.7966 60.9244 33.5047 63.0315 33.5047Z" stroke="#00008F" stroke-width="2" stroke-linecap="round" stroke-linejoin="round"/>
<path d="M72.7212 30.9009V28.4786C72.7207 28.332 72.6653 28.191 72.5658 28.0834C72.4664 27.9758 72.3303 27.9093 72.1842 27.8972L70.7228 27.772C70.533 27.0179 70.2337 26.2956 69.8346 25.6283L70.7793 24.5099C70.8778 24.3966 70.9293 24.2499 70.9233 24.0998C70.9173 23.9497 70.8542 23.8076 70.747 23.7025L69.019 21.9745C68.9139 21.8673 68.7718 21.8042 68.6217 21.7982C68.4716 21.7922 68.325 21.8437 68.2116 21.9422L67.0933 22.887C66.4285 22.4959 65.7104 22.2035 64.9616 22.0189L64.8364 20.5575C64.8291 20.4057 64.7631 20.2628 64.6524 20.1588C64.5416 20.0549 64.3948 19.998 64.243 20.0003H61.8206C61.6741 20.0008 61.5331 20.0563 61.4254 20.1557C61.3178 20.2551 61.2514 20.3912 61.2392 20.5373L61.102 22.0189C60.3478 22.2087 59.6256 22.508 58.9582 22.9071L57.8399 21.9624C57.7265 21.8639 57.5798 21.8124 57.4297 21.8184C57.2797 21.8244 57.1376 21.8875 57.0324 21.9947L55.3045 23.7227C55.1972 23.8278 55.1342 23.9699 55.1282 24.12C55.1222 24.27 55.1737 24.4167 55.2722 24.5301L56.2169 25.6484C55.8318 26.3076 55.5436 27.0187 55.361 27.7599L53.8995 27.8851C53.7478 27.8924 53.6048 27.9584 53.5009 28.0691C53.3969 28.1799 53.3401 28.3267 53.3424 28.4786V30.9009C53.3429 31.0474 53.3983 31.1884 53.4977 31.2961C53.5971 31.4037 53.7333 31.4702 53.8793 31.4823L55.3408 31.6074C55.5306 32.3616 55.8298 33.0838 56.229 33.7512L55.2843 34.8695C55.1858 34.9829 55.1343 35.1296 55.1403 35.2797C55.1463 35.4297 55.2093 35.5718 55.3166 35.677L57.0445 37.4049C57.1497 37.5122 57.2918 37.5752 57.4418 37.5812C57.5919 37.5872 57.7386 37.5357 57.852 37.4372L58.9703 36.4925C59.6377 36.8917 60.3599 37.1909 61.1141 37.3807L61.2392 38.8422C61.2514 38.9882 61.3178 39.1244 61.4254 39.2238C61.5331 39.3232 61.6741 39.3787 61.8206 39.3792H64.243C64.3895 39.3787 64.5305 39.3232 64.6381 39.2238C64.7458 39.1244 64.8122 38.9882 64.8243 38.8422L64.9495 37.3807C65.7036 37.1909 66.4259 36.8917 67.0933 36.4925L68.2116 37.4372C68.325 37.5357 68.4716 37.5872 68.6217 37.5812C68.7718 37.5752 68.9139 37.5122 69.019 37.4049L70.747 35.677C70.8542 35.5718 70.9173 35.4297 70.9233 35.2797C70.9293 35.1296 70.8778 34.9829 70.7793 34.8695L69.8346 33.7512C70.2337 33.0838 70.533 32.3616 70.7228 31.6074L72.1842 31.4823C72.3303 31.4702 72.4664 31.4037 72.5658 31.2961C72.6653 31.1884 72.7207 31.0474 72.7212 30.9009V30.9009Z" stroke="#00008F" stroke-width="2" stroke-linecap="round" stroke-linejoin="round"/>
<path d="M41.4089 40.5621C43.0321 40.5621 44.348 39.2462 44.348 37.623C44.348 35.9997 43.0321 34.6838 41.4089 34.6838C39.7856 34.6838 38.4697 35.9997 38.4697 37.623C38.4697 39.2462 39.7856 40.5621 41.4089 40.5621Z" stroke="#00008F" stroke-width="2" stroke-linecap="round" stroke-linejoin="round"/>
<path d="M48.2159 40.8117L48.7973 39.0231C48.832 38.9143 48.8243 38.7964 48.7756 38.693C48.7269 38.5896 48.6409 38.5085 48.5349 38.466L47.4933 38.03C47.5358 37.4328 47.4882 36.8326 47.352 36.2495L48.3088 35.652C48.406 35.5931 48.4772 35.4994 48.5079 35.39C48.5386 35.2805 48.5266 35.1635 48.4743 35.0626L47.6184 33.3871C47.5657 33.2875 47.4779 33.2109 47.3721 33.1721C47.2662 33.1334 47.1497 33.1352 47.0451 33.1772L46.0035 33.6051C45.6106 33.1529 45.152 32.7623 44.643 32.4464L44.9014 31.3483C44.9261 31.2377 44.9088 31.1219 44.8528 31.0234C44.7968 30.9249 44.7062 30.8508 44.5986 30.8154L42.8101 30.234C42.7017 30.1991 42.5842 30.2062 42.4809 30.2541C42.3776 30.302 42.2962 30.3871 42.2529 30.4924L41.8169 31.534C41.2197 31.4915 40.6195 31.5391 40.0365 31.6753L39.4389 30.7185C39.3799 30.6203 39.2855 30.5484 39.1752 30.5176C39.0648 30.4868 38.9468 30.4995 38.8455 30.553L37.174 31.4089C37.073 31.4602 36.995 31.5477 36.9553 31.6538C36.9157 31.76 36.9174 31.8772 36.9601 31.9822L37.388 33.0278C36.9369 33.4218 36.5464 33.8803 36.2293 34.3884L35.1352 34.13C35.0247 34.1053 34.9088 34.1226 34.8103 34.1786C34.7118 34.2345 34.6377 34.3251 34.6023 34.4328L34.0209 36.2213C33.9869 36.3297 33.9946 36.4468 34.0423 36.5498C34.0901 36.6529 34.1746 36.7344 34.2793 36.7784L35.3209 37.2145C35.2784 37.8117 35.326 38.4119 35.4622 38.9949L34.5054 39.5924C34.4079 39.6521 34.3366 39.7465 34.3059 39.8566C34.2752 39.9667 34.2873 40.0844 34.3399 40.1859L35.2119 41.8533C35.2633 41.9543 35.3507 42.0323 35.4569 42.072C35.5631 42.1116 35.6802 42.1099 35.7852 42.0672L36.8268 41.6393C37.2208 42.0904 37.6793 42.4809 38.1874 42.798L37.929 43.8961C37.9043 44.0067 37.9216 44.1225 37.9776 44.221C38.0335 44.3195 38.1242 44.3937 38.2318 44.429L40.0082 45.0306C40.1166 45.0646 40.2337 45.057 40.3368 45.0092C40.4398 44.9614 40.5213 44.8769 40.5653 44.7722L41.0014 43.7306C41.5986 43.7731 42.1988 43.7255 42.7818 43.5893L43.3793 44.5461C43.4389 44.6426 43.5326 44.7132 43.6417 44.7438C43.7509 44.7745 43.8676 44.763 43.9687 44.7116L45.6442 43.8194C45.7439 43.7667 45.8204 43.6789 45.8592 43.5731C45.898 43.4672 45.8962 43.3507 45.8541 43.2461L45.4262 42.2045C45.8784 41.8116 46.269 41.353 46.5849 40.8439L47.683 41.1023C47.792 41.1277 47.9066 41.1121 48.0048 41.0585C48.1031 41.0049 48.1782 40.917 48.2159 40.8117Z" stroke="#00008F" stroke-width="2" stroke-linecap="round" stroke-linejoin="round"/>
</svg>

<svg width="96" height="96" viewBox="0 0 96 96" fill="none" xmlns="http://www.w3.org/2000/svg"><path d="M19.527 59.365a4.443 4.443 0 01-4.443-4.432 4.237 4.237 0 01.33-1.677l5.666-14.212.113-.35c.102-.274.205-.572.308-.894.34-.967.648-1.902.936-2.766l.154-.453c.525-1.604.874-2.797 1.029-3.486C26.396 19.433 39.035 9.9 51.982 9.9a29.462 29.462 0 0129.504 29.422c0 8.443-4.946 18.583-11.723 24.496l3.507 19.539A2.233 2.233 0 0171.069 86H41.966a2.243 2.243 0 01-2.057-1.317l-3.147-7.003h-2.818a12.978 12.978 0 01-12.998-12.957v-5.358h-1.42z" stroke="#00008F" stroke-width="1.882" stroke-linecap="round" stroke-linejoin="round"/><path d="M63.032 33.505a3.815 3.815 0 100-7.63 3.815 3.815 0 000 7.63z" stroke="#00008F" stroke-width="2" stroke-linecap="round" stroke-linejoin="round"/><path d="M72.721 30.9V28.48a.585.585 0 00-.537-.582l-1.461-.125a7.964 7.964 0 00-.888-2.144l.944-1.118a.59.59 0 00-.032-.808l-1.728-1.728a.59.59 0 00-.807-.032l-1.119.945a7.963 7.963 0 00-2.131-.868l-.126-1.461a.586.586 0 00-.593-.558h-2.422a.586.586 0 00-.582.537l-.137 1.482c-.754.19-1.476.489-2.144.888l-1.118-.945a.59.59 0 00-.808.033l-1.727 1.728a.589.589 0 00-.033.807l.945 1.118a7.961 7.961 0 00-.856 2.112l-1.461.125a.585.585 0 00-.558.594V30.9a.586.586 0 00.537.581l1.462.125a7.96 7.96 0 00.888 2.144l-.945 1.119a.59.59 0 00.033.807l1.727 1.728a.59.59 0 00.808.032l1.118-.944c.668.399 1.39.698 2.144.888l.125 1.461a.586.586 0 00.582.537h2.422a.585.585 0 00.581-.537l.126-1.461a7.962 7.962 0 002.143-.889l1.119.945a.59.59 0 00.807-.032l1.728-1.728a.59.59 0 00.032-.807l-.944-1.119c.399-.667.698-1.39.888-2.144l1.461-.125a.585.585 0 00.537-.581v0zM41.409 40.562a2.94 2.94 0 100-5.878 2.94 2.94 0 000 5.878z" stroke="#00008F" stroke-width="2" stroke-linecap="round" stroke-linejoin="round"/><path d="M48.216 40.812l.581-1.789a.452.452 0 00-.262-.557l-1.042-.436a5.966 5.966 0 00-.141-1.78l.957-.598a.448.448 0 00.165-.59l-.856-1.675a.457.457 0 00-.573-.21l-1.041.428a5.98 5.98 0 00-1.361-1.159l.258-1.098a.456.456 0 00-.302-.533l-1.789-.581a.453.453 0 00-.557.258l-.436 1.042a5.965 5.965 0 00-1.78.141l-.598-.957a.448.448 0 00-.593-.165l-1.672.856a.452.452 0 00-.214.573l.428 1.046a6.082 6.082 0 00-1.159 1.36l-1.094-.258a.456.456 0 00-.533.303l-.581 1.788a.457.457 0 00.258.557l1.042.437a5.965 5.965 0 00.141 1.78l-.957.597a.452.452 0 00-.165.594l.872 1.667a.453.453 0 00.573.214l1.042-.428c.394.451.852.842 1.36 1.159l-.258 1.098a.456.456 0 00.303.533l1.776.602a.456.456 0 00.557-.259l.436-1.041a5.965 5.965 0 001.78-.142l.598.957a.452.452 0 00.59.166l1.675-.893a.456.456 0 00.21-.573l-.428-1.041a5.977 5.977 0 001.159-1.361l1.098.258a.456.456 0 00.533-.29z" stroke="#00008F" stroke-width="2" stroke-linecap="round" stroke-linejoin="round"/></svg>
